logo/aws-certificate-manager.svg

<?xml version="1.0" encoding="UTF-8"?>
<svg width="256px" height="256px" viewBox="0 0 256 256" version="1.1" xmlns="http://www.w3.org/2000/svg" xmlns:xlink="http://www.w3.org/1999/xlink" preserveAspectRatio="xMidYMid">
    <title>AWS Certificate Manager</title>
    <defs>
        <linearGradient x1="0%" y1="100%" x2="100%" y2="0%" id="linearGradient-1">
            <stop stop-color="#BD0816" offset="0%"></stop>
            <stop stop-color="#FF5252" offset="100%"></stop>
        </linearGradient>
    </defs>
    <g>
        <rect fill="url(#linearGradient-1)" x="0" y="0" width="256" height="256"></rect>
        <path d="M114.2208,125.6992 C115.0208,126.4704 115.36,127.5968 115.1264,128.6816 L111.8464,143.7504 L126.3264,134.8736 C127.3536,134.24 128.6464,134.24 129.6768,134.8768 L144.0512,143.7312 L140.8672,128.6368 C140.6432,127.5648 140.9792,126.4544 141.76,125.6896 L154.6848,113.0368 L137.8336,110.6048 C136.784,110.4512 135.8816,109.792 135.4144,108.8416 L127.9712,93.6032 L120.352,108.88 C119.888,109.8176 118.9888,110.4672 117.952,110.6176 L101.1488,113.072 L114.2208,125.6992 Z M103.9968,149.7184 L108.4928,129.0624 L92.0192,113.1488 C91.1392,112.3008 90.8224,111.0304 91.1936,109.8656 C91.568,108.704 92.5696,107.856 93.776,107.6832 L115.3696,104.5248 L125.136,84.944 C125.6768,83.856 126.7008,83.1072 128.0128,83.1712 C129.2288,83.1776 130.3392,83.8752 130.8736,84.9664 L140.4224,104.512 L162.0032,107.632 C163.2096,107.8048 164.208,108.6464 164.5856,109.8048 C164.9632,110.9632 164.656,112.2336 163.7824,113.0848 L147.4912,129.0336 L151.8528,149.7056 C152.1152,150.96 151.6096,152.2496 150.56,152.9856 C149.5168,153.7216 148.1344,153.7632 147.0432,153.0944 L127.9968,141.3568 L108.7968,153.1264 C108.2848,153.4432 107.7024,153.6 107.1232,153.6 C106.4736,153.6 105.824,153.4016 105.2704,153.008 C104.2272,152.2656 103.7248,150.9696 103.9968,149.7184 L103.9968,149.7184 Z M44.8,67.2672 L211.2,67.2672 L211.2,51.2 L44.8,51.2 L44.8,67.2672 Z M217.6,48 L217.6,208 C217.6,209.7664 216.1664,211.2 214.4,211.2 L195.2,211.2 L195.2,204.8 L211.2,204.8 L211.2,73.6704 L44.8,73.6704 L44.8,204.8 L166.4,204.8 L166.4,211.2 L41.6,211.2 C39.8304,211.2 38.4,209.7664 38.4,208 L38.4,48 C38.4,46.2336 39.8304,44.8 41.6,44.8 L214.4,44.8 C216.1664,44.8 217.6,46.2336 217.6,48 L217.6,48 Z M76.8,188.8 L96,188.8 L96,182.4 L76.8,182.4 L76.8,188.8 Z M108.8,188.8 L153.6,188.8 L153.6,182.4 L108.8,182.4 L108.8,188.8 Z M76.8,172.8 L96,172.8 L96,166.4 L76.8,166.4 L76.8,172.8 Z M108.8,172.8 L179.2,172.8 L179.2,166.4 L108.8,166.4 L108.8,172.8 Z" fill="#FFFFFF"></path>
    </g>
</svg>

<svg viewBox="0 0 256 256" xmlns="http://www.w3.org/2000/svg"><defs><linearGradient id="a" x1="0%" x2="100%" y1="100%" y2="0%"><stop offset="0%" stop-color="#BD0816"/><stop offset="100%" stop-color="#FF5252"/></linearGradient></defs><path fill="url(#a)" d="M0 0h256v256H0Z"/><path fill="#FFF" d="M114.22 125.69c.8.77 1.13 1.89.9 2.98l-3.28 15.06 14.48-8.88c1.02-.64 2.32-.64 3.35 0l14.37 8.85 -3.19-15.1c-.23-1.08.11-2.19.89-2.95l12.92-12.66 -16.86-2.44c-1.05-.16-1.96-.82-2.42-1.77l-7.45-15.24 -7.62 15.27c-.47.93-1.37 1.58-2.4 1.73l-16.81 2.45 13.07 12.62Zm-10.23 24.01l4.49-20.66L92 113.12c-.88-.85-1.2-2.12-.83-3.29s1.37-2.01 2.58-2.19l21.59-3.16 9.76-19.59c.54-1.09 1.56-1.84 2.87-1.78 1.21 0 2.32.7 2.86 1.79l9.54 19.54 21.58 3.12c1.2.17 2.2 1.01 2.58 2.17 .37 1.15.07 2.42-.81 3.28l-16.3 15.94 4.36 20.67c.26 1.25-.25 2.54-1.3 3.28 -1.05.73-2.43.77-3.52.1l-19.05-11.74 -19.2 11.76c-.52.31-1.1.47-1.68.47 -.65 0-1.3-.2-1.86-.6 -1.05-.75-1.55-2.04-1.28-3.29v0Zm-59.2-82.46h166.4V51.17H44.79v16.06Zm172.8-19.27v160c0 1.76-1.44 3.2-3.2 3.2h-19.2v-6.4h16V73.64H44.79v131.12h121.6v6.4H41.59c-1.77 0-3.2-1.44-3.2-3.2v-160c0-1.77 1.43-3.2 3.2-3.2h172.8c1.76 0 3.2 1.43 3.2 3.2v0Zm-140.8 140.8h19.2v-6.4h-19.2v6.4Zm32 0h44.8v-6.4h-44.8v6.4Zm-32-16h19.2v-6.4h-19.2v6.4Zm32 0h70.4v-6.4h-70.4v6.4Z"/></svg>
